humanity-icon-theme/Humanity/status/64/image-missing.svg

<?xml version="1.0" encoding="UTF-8" standalone="no"?>
<!-- Created with Inkscape (http://www.inkscape.org/) -->
<svg
   xmlns:svg="http://www.w3.org/2000/svg"
   xmlns="http://www.w3.org/2000/svg"
   xmlns:xlink="http://www.w3.org/1999/xlink"
   version="1.0"
   width="64"
   height="64"
   id="svg3359">
  <defs
     id="defs3361">
    <radialGradient
       cx="605.71429"
       cy="486.64789"
       r="117.14286"
       fx="605.71429"
       fy="486.64789"
       id="radialGradient3284"
       xlink:href="#linearGradient5060"
       gradientUnits="userSpaceOnUse"
       gradientTransform="matrix(2.891661e-2,0,0,1.2352939e-2,26.973101,38.470848)" />
    <linearGradient
       id="linearGradient5060">
      <stop
         id="stop5062"
         style="stop-color:#000000;stop-opacity:1"
         offset="0" />
      <stop
         id="stop5064"
         style="stop-color:#000000;stop-opacity:0"
         offset="1" />
    </linearGradient>
    <radialGradient
       cx="605.71429"
       cy="486.64789"
       r="117.14286"
       fx="605.71429"
       fy="486.64789"
       id="radialGradient3282"
       xlink:href="#linearGradient5060"
       gradientUnits="userSpaceOnUse"
       gradientTransform="matrix(-2.8916604e-2,0,0,1.2352939e-2,21.026894,38.470848)" />
    <linearGradient
       id="linearGradient5048">
      <stop
         id="stop5050"
         style="stop-color:#000000;stop-opacity:0"
         offset="0" />
      <stop
         id="stop5056"
         style="stop-color:#000000;stop-opacity:1"
         offset="0.5" />
      <stop
         id="stop5052"
         style="stop-color:#000000;stop-opacity:0"
         offset="1" />
    </linearGradient>
    <linearGradient
       x1="302.85715"
       y1="366.64789"
       x2="302.85715"
       y2="609.50507"
       id="linearGradient3280"
       xlink:href="#linearGradient5048"
       gradientUnits="userSpaceOnUse"
       gradientTransform="matrix(8.4497041e-2,0,0,1.2352939e-2,-6.5396456,38.470822)" />
    <linearGradient
       id="linearGradient259-942">
      <stop
         id="stop3802"
         style="stop-color:#ffffff;stop-opacity:1"
         offset="0" />
      <stop
         id="stop3804"
         style="stop-color:#e0e0e0;stop-opacity:1"
         offset="1" />
    </linearGradient>
    <linearGradient
       x1="74.799019"
       y1="116.51463"
       x2="74.868828"
       y2="11.679441"
       id="linearGradient3313"
       xlink:href="#linearGradient259-942"
       gradientUnits="userSpaceOnUse"
       gradientTransform="matrix(0.6642565,0,0,0.4683309,-77.020882,-65.615587)" />
    <linearGradient
       id="linearGradient3610-302">
      <stop
         id="stop3796"
         style="stop-color:#333333;stop-opacity:1"
         offset="0" />
      <stop
         id="stop3798"
         style="stop-color:#292929;stop-opacity:1"
         offset="1" />
    </linearGradient>
    <linearGradient
       x1="-24.032034"
       y1="-13.090545"
       x2="-24.097931"
       y2="-40.163883"
       id="linearGradient3310"
       xlink:href="#linearGradient3610-302"
       gradientUnits="userSpaceOnUse"
       gradientTransform="matrix(1.4571432,0,0,1.4814813,2.9822608,4.5114288)" />
    <linearGradient
       id="linearGradient4157-401-351">
      <stop
         id="stop3790"
         style="stop-color:#262626;stop-opacity:1"
         offset="0" />
      <stop
         id="stop3792"
         style="stop-color:#828282;stop-opacity:1"
         offset="1" />
    </linearGradient>
    <linearGradient
       x1="28.938274"
       y1="17.33289"
       x2="105.36545"
       y2="92.823723"
       id="linearGradient3308"
       xlink:href="#linearGradient4157-401-351"
       gradientUnits="userSpaceOnUse"
       gradientTransform="matrix(0.6418672,0,0,0.5071133,-75.621312,-64.620203)" />
    <linearGradient
       id="linearGradient8838">
      <stop
         id="stop8840"
         style="stop-color:#000000;stop-opacity:1"
         offset="0" />
      <stop
         id="stop8842"
         style="stop-color:#000000;stop-opacity:0"
         offset="1" />
    </linearGradient>
    <radialGradient
       cx="62.625"
       cy="4.625"
       r="10.625"
       fx="62.625"
       fy="4.625"
       id="radialGradient3357"
       xlink:href="#linearGradient8838"
       gradientUnits="userSpaceOnUse"
       gradientTransform="matrix(1.5058824,0,0,0.37647,-62.305887,46.258823)" />
    <linearGradient
       id="linearGradient2490">
      <stop
         id="stop2492"
         style="stop-color:#791235;stop-opacity:1"
         offset="0" />
      <stop
         id="stop2494"
         style="stop-color:#dd3b27;stop-opacity:1"
         offset="1" />
    </linearGradient>
    <linearGradient
       x1="18.379412"
       y1="44.980297"
       x2="18.379412"
       y2="3.0816143"
       id="linearGradient3354"
       xlink:href="#linearGradient2490"
       gradientUnits="userSpaceOnUse"
       gradientTransform="matrix(0.6635046,0,0,0.6635046,16.075889,20.075889)" />
    <linearGradient
       id="linearGradient3242">
      <stop
         id="stop3244"
         style="stop-color:#f8b17e;stop-opacity:1"
         offset="0" />
      <stop
         id="stop3246"
         style="stop-color:#e35d4f;stop-opacity:1"
         offset="0.26238" />
      <stop
         id="stop3248"
         style="stop-color:#c6262e;stop-opacity:1"
         offset="0.66093999" />
      <stop
         id="stop3250"
         style="stop-color:#690b54;stop-opacity:1"
         offset="1" />
    </linearGradient>
    <radialGradient
       cx="23.895569"
       cy="3.9900031"
       r="20.397499"
       fx="23.895569"
       fy="3.9900031"
       id="radialGradient3352"
       xlink:href="#linearGradient3242"
       gradientUnits="userSpaceOnUse"
       gradientTransform="matrix(0,1.5835583,-2.0902688,0,40.34018,-16.357108)" />
    <linearGradient
       x1="63.397362"
       y1="-12.489107"
       x2="63.397362"
       y2="5.4675598"
       id="linearGradient3349"
       xlink:href="#linearGradient4873"
       gradientUnits="userSpaceOnUse"
       gradientTransform="matrix(1.4293064,0,0,1.429274,-56.903438,41.017945)" />
    <linearGradient
       id="linearGradient3781">
      <stop
         id="stop3783"
         style="stop-color:#ffffff;stop-opacity:1"
         offset="0" />
      <stop
         id="stop3785"
         style="stop-color:#ffffff;stop-opacity:0"
         offset="1" />
    </linearGradient>
    <linearGradient
       x1="24.481066"
       y1="5.0808945"
       x2="24.481066"
       y2="45.074459"
       id="linearGradient3346"
       xlink:href="#linearGradient3781"
       gradientUnits="userSpaceOnUse"
       gradientTransform="matrix(0.7178932,0,0,0.7178932,14.77056,18.052669)" />
    <linearGradient
       x1="-42.773075"
       y1="-12.07479"
       x2="-42.72831"
       y2="-59.088001"
       id="linearGradient3329"
       xlink:href="#linearGradient4873"
       gradientUnits="userSpaceOnUse" />
    <linearGradient
       id="linearGradient4873">
      <stop
         id="stop4875"
         style="stop-color:#ffffff;stop-opacity:1"
         offset="0" />
      <stop
         id="stop4877"
         style="stop-color:#ffffff;stop-opacity:0"
         offset="1" />
    </linearGradient>
    <linearGradient
       x1="-42.773075"
       y1="-12.07479"
       x2="-42.72831"
       y2="-59.088001"
       id="linearGradient3333"
       xlink:href="#linearGradient4873"
       gradientUnits="userSpaceOnUse"
       gradientTransform="matrix(0.9298246,0,0,0.9130437,-2.3114597,67.909111)" />
  </defs>
  <g
     id="layer1">
    <g
       transform="scale(1.3333333,1.3333333)"
       id="g3257"
       style="opacity:0.4">
      <rect
         width="40.799999"
         height="2.9999998"
         x="3.5999999"
         y="43"
         id="rect2879"
         style="opacity:1;fill:url(#linearGradient3280);fill-opacity:1;fill-rule:nonzero;stroke:none;stroke-width:1;stroke-linecap:round;stroke-linejoin:miter;marker:none;marker-start:none;marker-mid:none;marker-end:none;stroke-miterlimit:4;stroke-dasharray:none;stroke-dashoffset:0;stroke-opacity:1;visibility:visible;display:inline;overflow:visible" />
      <path
         d="M 3.6,43.00013 C 3.6,43.00013 3.6,45.999965 3.6,45.999965 C 2.1108662,46.005612 7.1054274e-15,45.327854 7.1054274e-15,44.499854 C 7.1054274e-15,43.671856 1.6617608,43.000131 3.6,43.00013 z"
         id="path2881"
         style="opacity:1;fill:url(#radialGradient3282);fill-opacity:1;fill-rule:nonzero;stroke:none;stroke-width:1;stroke-linecap:round;stroke-linejoin:miter;marker:none;marker-start:none;marker-mid:none;marker-end:none;stroke-miterlimit:4;stroke-dasharray:none;stroke-dashoffset:0;stroke-opacity:1;visibility:visible;display:inline;overflow:visible" />
      <path
         d="M 44.4,43.00013 C 44.4,43.00013 44.4,45.999965 44.4,45.999965 C 45.889133,46.005612 48,45.327854 48,44.499854 C 48,43.671856 46.338239,43.000131 44.4,43.00013 z"
         id="path2883"
         style="opacity:1;fill:url(#radialGradient3284);fill-opacity:1;fill-rule:nonzero;stroke:none;stroke-width:1;stroke-linecap:round;stroke-linejoin:miter;marker:none;marker-start:none;marker-mid:none;marker-end:none;stroke-miterlimit:4;stroke-dasharray:none;stroke-dashoffset:0;stroke-opacity:1;visibility:visible;display:inline;overflow:visible" />
    </g>
    <rect
       width="58.954849"
       height="47.896111"
       x="-61.44389"
       y="-59.504414"
       transform="matrix(-0.9999984,1.7625461e-3,-9.4451736e-4,-0.9999996,0,0)"
       id="rect3580"
       style="fill:url(#linearGradient3313);fill-opacity:1;stroke:#c1c1c1;stroke-width:0.99999982;stroke-linecap:round;stroke-linejoin:miter;stroke-miterlimit:4;stroke-dasharray:none;stroke-opacity:0.96862745" />
    <rect
       width="50.905079"
       height="39.805202"
       rx="0"
       ry="0"
       x="-57.538059"
       y="-55.525555"
       transform="matrix(-0.9999927,3.8288606e-3,2.3939956e-3,-0.9999971,0,0)"
       id="rect3582"
       style="fill:url(#linearGradient3308);fill-opacity:1;stroke:url(#linearGradient3310);stroke-width:1.00000978;stroke-linecap:round;stroke-linejoin:miter;stroke-miterlimit:4;stroke-dasharray:none;stroke-opacity:1" />
    <path
       d="M 47.999995,47.999999 C 47.999995,50.209138 40.836551,51.999999 31.999996,51.999999 C 23.16344,51.999999 15.999996,50.209138 15.999996,47.999999 C 15.999996,45.790861 23.16344,43.999999 31.999996,43.999999 C 40.836551,43.999999 47.999995,45.790861 47.999995,47.999999 L 47.999995,47.999999 z"
       id="path8836"
       style="opacity:0.4;fill:url(#radialGradient3357);fill-opacity:1;fill-rule:evenodd;stroke:none;stroke-width:0.99999988;stroke-linecap:butt;stroke-linejoin:round;marker:none;marker-start:none;marker-mid:none;marker-end:none;stroke-miterlimit:4;stroke-dasharray:none;stroke-dashoffset:0;stroke-opacity:1;visibility:visible;display:inline;overflow:visible" />
    <path
       d="M 32.000003,22.501828 C 24.552176,22.501828 18.501828,28.552174 18.501828,36 C 18.501828,43.447827 24.552176,49.498178 32.000003,49.498174 C 39.447826,49.498174 45.498182,43.447827 45.498174,36 C 45.498174,28.552174 39.447826,22.501828 32.000003,22.501828 z M 32.000003,26.835342 C 37.06352,26.835342 41.16466,30.936485 41.16466,36 C 41.16466,38.125118 40.428342,40.064999 39.215613,41.619057 L 27.604285,27.955007 C 28.90885,27.241202 30.407341,26.835342 32.000003,26.835342 z M 24.659981,30.526087 L 36.229846,44.127934 C 34.964421,44.787199 33.526261,45.164661 32.000003,45.164661 C 26.936486,45.164659 22.835344,41.063517 22.835344,36 C 22.835344,33.942948 23.516731,32.055037 24.659981,30.526087 z"
       id="path2555"
       style="fill:url(#radialGradient3352);fill-opacity:1;stroke:url(#linearGradient3354);stroke-width:1.00365424;stroke-linecap:round;stroke-linejoin:round;stroke-miterlimit:4;stroke-dasharray:none;stroke-dashoffset:0;stroke-opacity:1" />
    <path
       d="M 44.500002,35.999556 C 44.500002,42.903339 38.903147,48.5 32.00016,48.5 C 25.096538,48.5 19.500001,42.903277 19.500001,35.999556 C 19.500001,29.096094 25.096538,23.5 32.00016,23.5 C 38.903147,23.5 44.500002,29.096094 44.500002,35.999556 L 44.500002,35.999556 z"
       id="path2463"
       style="opacity:0.4;fill:none;fill-opacity:1;fill-rule:nonzero;stroke:url(#linearGradient3349);stroke-width:0.99999994;stroke-miterlimit:4;stroke-dasharray:none;stroke-opacity:1" />
    <path
       d="M 26.678462,28.480102 L 38.558927,42.415093"
       id="path3270"
       style="opacity:0.4;fill:none;fill-rule:evenodd;stroke:url(#linearGradient3346);stroke-width:1px;stroke-linecap:round;stroke-linejoin:miter;stroke-opacity:1" />
    <rect
       width="56.956375"
       height="45.90044"
       x="-60.444382"
       y="-58.506126"
       transform="matrix(-0.9999985,1.7483731e-3,-9.5217409e-4,-0.9999995,0,0)"
       id="rect3319"
       style="fill:none;fill-opacity:1;stroke:url(#linearGradient3329);stroke-width:0.9999997;stroke-linecap:round;stroke-linejoin:miter;stroke-miterlimit:4;stroke-dasharray:none;stroke-opacity:0.96862745" />
    <rect
       width="52.959435"
       height="41.9091"
       x="-58.514137"
       y="14.490466"
       transform="matrix(-0.9999985,-1.7168195e-3,-9.696743e-4,0.9999995,0,0)"
       id="rect3331"
       style="fill:none;fill-opacity:1;stroke:url(#linearGradient3333);stroke-width:0.99999964;stroke-linecap:round;stroke-linejoin:miter;stroke-miterlimit:4;stroke-dasharray:none;stroke-opacity:0.96862745" />
  </g>
</svg>

<?xml version="1.0" encoding="UTF-8" standalone="no"?>
<!-- Created with Inkscape (http://www.inkscape.org/) -->
<svg id="svg3359" xmlns="http://www.w3.org/2000/svg" height="64" width="64" version="1.0" xmlns:xlink="http://www.w3.org/1999/xlink">
 <defs id="defs3361">
  <radialGradient id="radialGradient3284" xlink:href="#linearGradient5060" gradientUnits="userSpaceOnUse" cy="486.65" cx="605.71" gradientTransform="matrix(.028917 0 0 .012353 26.973 38.471)" r="117.14"/>
  <linearGradient id="linearGradient5060">
   <stop id="stop5062" offset="0"/>
   <stop id="stop5064" style="stop-opacity:0" offset="1"/>
  </linearGradient>
  <radialGradient id="radialGradient3282" xlink:href="#linearGradient5060" gradientUnits="userSpaceOnUse" cy="486.65" cx="605.71" gradientTransform="matrix(-.028917 0 0 .012353 21.027 38.471)" r="117.14"/>
  <linearGradient id="linearGradient3280" y2="609.51" gradientUnits="userSpaceOnUse" x2="302.86" gradientTransform="matrix(.084497 0 0 .012353 -6.5396 38.471)" y1="366.65" x1="302.86">
   <stop id="stop5050" style="stop-opacity:0" offset="0"/>
   <stop id="stop5056" offset=".5"/>
   <stop id="stop5052" style="stop-opacity:0" offset="1"/>
  </linearGradient>
  <linearGradient id="linearGradient3313" y2="11.679" gradientUnits="userSpaceOnUse" x2="74.869" gradientTransform="matrix(.66426 0 0 .46833 -77.021 -65.616)" y1="116.51" x1="74.799">
   <stop id="stop3802" style="stop-color:#fff" offset="0"/>
   <stop id="stop3804" style="stop-color:#e0e0e0" offset="1"/>
  </linearGradient>
  <linearGradient id="linearGradient3310" y2="-40.164" gradientUnits="userSpaceOnUse" x2="-24.098" gradientTransform="matrix(1.4571 0 0 1.4815 2.9823 4.5114)" y1="-13.091" x1="-24.032">
   <stop id="stop3796" style="stop-color:#333" offset="0"/>
   <stop id="stop3798" style="stop-color:#292929" offset="1"/>
  </linearGradient>
  <linearGradient id="linearGradient3308" y2="92.824" gradientUnits="userSpaceOnUse" x2="105.37" gradientTransform="matrix(.64187 0 0 .50711 -75.621 -64.62)" y1="17.333" x1="28.938">
   <stop id="stop3790" style="stop-color:#262626" offset="0"/>
   <stop id="stop3792" style="stop-color:#828282" offset="1"/>
  </linearGradient>
  <radialGradient id="radialGradient3357" gradientUnits="userSpaceOnUse" cy="4.625" cx="62.625" gradientTransform="matrix(1.5059 0 0 .37647 -62.306 46.259)" r="10.625">
   <stop id="stop8840" offset="0"/>
   <stop id="stop8842" style="stop-opacity:0" offset="1"/>
  </radialGradient>
  <linearGradient id="linearGradient3354" y2="3.0816" gradientUnits="userSpaceOnUse" x2="18.379" gradientTransform="matrix(.66350 0 0 .66350 16.076 20.076)" y1="44.98" x1="18.379">
   <stop id="stop2492" style="stop-color:#791235" offset="0"/>
   <stop id="stop2494" style="stop-color:#dd3b27" offset="1"/>
  </linearGradient>
  <radialGradient id="radialGradient3352" gradientUnits="userSpaceOnUse" cy="3.99" cx="23.896" gradientTransform="matrix(0 1.5836 -2.0903 0 40.34 -16.357)" r="20.397">
   <stop id="stop3244" style="stop-color:#f8b17e" offset="0"/>
   <stop id="stop3246" style="stop-color:#e35d4f" offset=".26238"/>
   <stop id="stop3248" style="stop-color:#c6262e" offset=".66094"/>
   <stop id="stop3250" style="stop-color:#690b54" offset="1"/>
  </radialGradient>
  <linearGradient id="linearGradient3349" y2="5.4676" xlink:href="#linearGradient4873" gradientUnits="userSpaceOnUse" x2="63.397" gradientTransform="matrix(1.4293 0 0 1.4293 -56.903 41.018)" y1="-12.489" x1="63.397"/>
  <linearGradient id="linearGradient3346" y2="45.074" gradientUnits="userSpaceOnUse" x2="24.481" gradientTransform="matrix(.71789 0 0 .71789 14.771 18.053)" y1="5.0809" x1="24.481">
   <stop id="stop3783" style="stop-color:#fff" offset="0"/>
   <stop id="stop3785" style="stop-color:#fff;stop-opacity:0" offset="1"/>
  </linearGradient>
  <linearGradient id="linearGradient3329" y2="-59.088" xlink:href="#linearGradient4873" gradientUnits="userSpaceOnUse" x2="-42.728" y1="-12.075" x1="-42.773"/>
  <linearGradient id="linearGradient4873">
   <stop id="stop4875" style="stop-color:#fff" offset="0"/>
   <stop id="stop4877" style="stop-color:#fff;stop-opacity:0" offset="1"/>
  </linearGradient>
  <linearGradient id="linearGradient3333" y2="-59.088" xlink:href="#linearGradient4873" gradientUnits="userSpaceOnUse" x2="-42.728" gradientTransform="matrix(.92982 0 0 .91304 -2.3115 67.909)" y1="-12.075" x1="-42.773"/>
 </defs>
 <g id="layer1">
  <g id="g3257" style="opacity:.4" transform="scale(1.3333)">
   <rect id="rect2879" style="opacity:1;fill:url(#linearGradient3280)" height="3" width="40.8" y="43" x="3.6"/>
   <path id="path2881" style="opacity:1;fill:url(#radialGradient3282)" d="m3.6 43v3c-1.4891 0.006-3.6-0.672-3.6-1.5 7.1054e-15 -0.828 1.6618-1.5 3.6-1.5z"/>
   <path id="path2883" style="opacity:1;fill:url(#radialGradient3284)" d="m44.4 43v3c1.489 0.006 3.6-0.672 3.6-1.5s-1.662-1.5-3.6-1.5z"/>
  </g>
  <rect id="rect3580" style="stroke-opacity:.96863;stroke:#c1c1c1;stroke-linecap:round;fill:url(#linearGradient3313)" transform="matrix(-1 .0017625 -.00094452 -1 0 0)" height="47.896" width="58.955" y="-59.504" x="-61.444"/>
  <rect id="rect3582" style="stroke:url(#linearGradient3310);stroke-linecap:round;fill:url(#linearGradient3308)" transform="matrix(-.99999 .0038289 .0023940 -1 0 0)" rx="0" ry="0" height="39.805" width="50.905" y="-55.526" x="-57.538"/>
  <path id="path8836" style="opacity:.4;fill-rule:evenodd;fill:url(#radialGradient3357)" d="m48 48c0 2.209-7.163 4-16 4s-16-1.791-16-4 7.163-4 16-4 16 1.791 16 4z"/>
  <path id="path2555" style="stroke-linejoin:round;stroke:url(#linearGradient3354);stroke-linecap:round;stroke-width:1.0037;fill:url(#radialGradient3352)" d="m32 22.502c-7.448 0-13.498 6.05-13.498 13.498s6.05 13.498 13.498 13.498 13.498-6.05 13.498-13.498-6.05-13.498-13.498-13.498zm0 4.333c5.064 0 9.165 4.101 9.165 9.165 0 2.125-0.737 4.065-1.949 5.619l-11.612-13.664c1.305-0.714 2.803-1.12 4.396-1.12zm-7.34 3.691l11.57 13.602c-1.266 0.659-2.704 1.037-4.23 1.037-5.064 0-9.165-4.101-9.165-9.165 0-2.057 0.682-3.945 1.825-5.474z"/>
  <path id="path2463" style="opacity:.4;stroke:url(#linearGradient3349);fill:none" d="m44.5 36c0 6.903-5.597 12.5-12.5 12.5s-12.5-5.597-12.5-12.5c0-6.904 5.597-12.5 12.5-12.5s12.5 5.596 12.5 12.5z"/>
  <path id="path3270" style="opacity:.4;stroke:url(#linearGradient3346);stroke-linecap:round;stroke-width:1px;fill:none" d="m26.678 28.48l11.881 13.935"/>
  <rect id="rect3319" style="stroke-opacity:.96863;stroke:url(#linearGradient3329);stroke-linecap:round;fill:none" transform="matrix(-1 .0017484 -.00095217 -1 0 0)" height="45.9" width="56.956" y="-58.506" x="-60.444"/>
  <rect id="rect3331" style="stroke-opacity:.96863;stroke:url(#linearGradient3333);stroke-linecap:round;fill:none" transform="matrix(-1 -.0017168 -.00096967 1 0 0)" height="41.909" width="52.959" y="14.49" x="-58.514"/>
 </g>
</svg>
